X:209
T:B209-  I am confirmed a woman can
Q:1/4=120
L:1/4
M:3/2
K:C
c2c2c2|A6|G2A3B|c6|\
c2A2d2|c4(G2|G2)A3G|G6:|\
d2d2e2|c4(d2|d2)B3A|d6|\
d2B3A|G4(c2|c2)D3c|c4G2|\
c4B2|A4G2|G2AGF2|E6|\
F2G2A2|F3EFG|E2D3C|C6|]

